icons/bag-chevron-down-outline.svg

<svg xmlns="http://www.w3.org/2000/svg" width="24" height="24" viewBox="0 0 24 24">
  <path d="M14,2 C15.5976809,2 16.9036609,3.24891996 16.9949073,4.82372721 L17,5 L17,6 L19,6 C20.5976809,6 21.9036609,7.24891996 21.9949073,8.82372721 L22,9 L22,19 C22,20.5976809 20.75108,21.9036609 19.1762728,21.9949073 L19,22 L5,22 C3.40231912,22 2.09633912,20.75108 2.00509269,19.1762728 L2,19 L2,9 C2,7.40231912 3.24891996,6.09633912 4.82372721,6.00509269 L5,6 L7,6 L7,5 C7,3.40231912 8.24891996,2.09633912 9.82372721,2.00509269 L10,2 L14,2 Z M19,8 L5,8 C4.48716416,8 4.06449284,8.38604019 4.00672773,8.88337887 L4,9 L4,19 C4,19.5128358 4.38604019,19.9355072 4.88337887,19.9932723 L5,20 L19,20 C19.5128358,20 19.9355072,19.6139598 19.9932723,19.1166211 L20,19 L20,9 C20,8.44771525 19.5522847,8 19,8 Z M8.38710056,11.7097046 C8.77939176,11.4046797 9.34662282,11.4324093 9.70710678,11.7928932 L9.70710678,11.7928932 L12,14.085 L14.2928932,11.7928932 L14.3871006,11.7097046 C14.7793918,11.4046797 15.3466228,11.4324093 15.7071068,11.7928932 C16.0976311,12.1834175 16.0976311,12.8165825 15.7071068,13.2071068 L15.7071068,13.2071068 L12.7071068,16.2071068 L12.6128994,16.2902954 C12.2206082,16.5953203 11.6533772,16.5675907 11.2928932,16.2071068 L11.2928932,16.2071068 L8.29289322,13.2071068 L8.20970461,13.1128994 C7.90467972,12.7206082 7.93240926,12.1533772 8.29289322,11.7928932 L8.29289322,11.7928932 Z M14,4 L10,4 C9.48716416,4 9.06449284,4.38604019 9.00672773,4.88337887 L9,5 L9,6 L15,6 L15,5 C15,4.48716416 14.6139598,4.06449284 14.1166211,4.00672773 L14,4 Z"/>
</svg>

<svg xmlns="http://www.w3.org/2000/svg" viewBox="0 0 24 24">
  <path d="M14 2a3 3 0 0 1 3 2.82V6h2a3 3 0 0 1 3 2.82V19a3 3 0 0 1-2.82 3H5a3 3 0 0 1-3-2.82V9a3 3 0 0 1 2.82-3H7V5a3 3 0 0 1 2.82-3H14zm5 6H5a1 1 0 0 0-1 .88V19a1 1 0 0 0 .88 1H19a1 1 0 0 0 1-.88V9a1 1 0 0 0-1-1zM8.39 11.71a1 1 0 0 1 1.32.08L12 14.1l2.3-2.3.09-.08a1 1 0 0 1 1.32 1.5l-3 3-.1.08a1 1 0 0 1-1.32-.08l-3-3-.08-.1a1 1 0 0 1 .08-1.32zM14 4h-4a1 1 0 0 0-1 .88V6h6V5a1 1 0 0 0-.88-1H14z"/>
</svg>
